!!!OTL: 96f. Der verwundete Knabe.
!!!ODT: 1890
!!!ARE: Europa, Mitteleuropa, Deutschland, Odenwald; Bergstrasse
!!!SCT: E0096D
!!!TXL: @@DE
!!!YEM: Copyright 1995, estate of Helmut Schaffrath.
**kern	**text
*ICvox	*
*M3/4	*
*k[b-]	*
*F:	*
!LO:TX:a:t=Mäßig langſam.	!
!LO:TX:a:t=Aus dem Taunus, 1875 u. vom Rhein, 1890.	!
{4c	Es
=1	=1
4f	woll-
4a	-te
4g	ein
=2	=2
4f	Mäd-
4f}	-chen
{8dd	in
8dd	der
=3	=3
(4.cc	Fruh
8b-)	.
4a	auf-
=4	=4
2g	-ſtehn,
4r}	.
=5	=5
{4cc	und
4cc	in
4cc	den
=6	=6
4.a	grü-
8b-	-nen
4cc}	Wald,
=7	=7
{8ddL	und
8ccJ	.
8b-L	in
8aJ	.
8gL	den
8fJ	.
=8	=8
4.g	grü-
8a	-nen
4b-}	Wald
=9	=9
{4cc	ſpa-
4a	-ʒie-
4g	-ren
=10	=10
2f	gehn.
4r}	.
=11	=11
{4cc	und
4cc	in
4cc	den
=12	=12
4.a	grü-
8b-	-nen
4cc}	Wald,
=13	=13
{8ddL	und
8ccJ	.
8b-L	in
8aJ	.
8gL	den
8fJ	.
=14	=14
4.g	grü-
8a	-nen
4b-}	Wald
=15	=15
{4cc	ſpa-
4a	-ʒie-
4g	-ren
=16	=16
2f}	gehn.
==	==
!!!AGN: erzaehlendes Volks - Lied, Sage, Liebe, Leid, Tod, Ballade ?
!!!ONB: ESAC (Essen Associative Code) Database: ERK1
!!!AMT: simple triple
!!!AIN: vox
!!!EED: Helmut Schaffrath
!!!EEV: 1.0
!!!GTL: Liebesgeschichten mit tragischem Schluss
!!!URL-scan: https://rosdok.uni-rostock.de/mcrviewer/recordIdentifier/rosdok_ppn745146120/iview2/phys_0410.iview2?x=-422.27491384562836&y=501.5781183773652&scale=0.554360769283424&rotation=0&layout=singlePageLayout
!!!ENC: Anna Maria Matuszewska
!!!EEV: 2024/11/29
*-	*-
